X:1
T:Dignare me lauda
T:Dignare me lauda
T:Jean Maillard
C:Jean Maillard
%%score [ 1 2 3 4 ]
L:1/8
Q:1/4=120
M:2/2
K:F
V:1 treble nm="Soprano 1" snm="S 1"
V:2 treble nm="Soprano 2" snm="S 2"
V:3 treble nm="Alto" snm="A"
V:4 treble-8 nm="Baritone" snm="Bar"
V:1
"^Source: Novum et Insigne Opus Musicum---Nürnberg---Montanus et Neuberus---1559.\nEditor: André Vierendeels (26/04/04)" z8 | %1
w: |
 d4 d2 d2 | c4 c2 d2- | dcBA B2 B2 | A4 z4 | z4 G4 | G2 G2 F4 | F2 A4 GF | GA B3 A A2- | %9
w: Di- gna- re|me lau- da-|* * * * * re|te,|di-|gna- re me|lau- da- * *||
 A2 G2 A3 B | cd e3 d d2- | d2"^#" c2 d4- | d4 z2 d2- | d2 G2 GABc | defd"^b" e2 d2- | %15
w: * * re _|_ _ _ _ _|* * te|_ O-|* Ie- su _ _ _|_ _ _ _ _ Chri-|
 d2 cB A2 B2- | BA G4"^#" F2 | G4 z2 d2 | c2 A2 c4 | B4 A4 | z2 f2 e2 c2 | d2 e3 d d2- | %22
w: ||ste, da|mi- hi vir-|tu- tem,|da mi- hi|vir- tu- * *|
 d2"^#" c2 d4 | z8 | d4 c2 e2 | d6 f2 | e2 d3 cAB | cBAG A4 | G8 | z4 A4 | G2 B2 A2 A2- | AGAB c4 | %32
w: * * tem||con- tra hos-|tes tu-|||os,|con-|tra hos- tes tu-||
 A4 c4 | d4 e2 c2 | d8 | z2 d2 c2 A2 | c4 B4 | A4 z2 f2 | e2 c2 d2 e2- | ed d4"^#" c2 | d4 z4 | %41
w: ||os,|da mi- hi|vir- tu-|tem,- da|mi- hi vir- tu-||tem|
 z4 d4 | c2 e2 d4- | d2 f2 e2 d2- | dcAB cBAG | A4 G4- | G4 z4 | A4 G2 B2 | A2 A3 GAB | c4 A4 | %50
w: con-|tra hos- tes|_ tu- * *||* os,|_|con- tra hos-|tes tu- * * *||
 c4 d4 | z4 z2 d2- | d2 c2"^b" e2 d2 | c4"^-natural" B4- | B8 |] %55
w: * os,|con-|* tra hos- tes|tu- os.|_|
V:2
 z8 | z8 | z8 | G4 G2 G2 | F4 F2 G2- | GFED E2 E2 | D8 | z8 | z4 d4 | d2 d2 c3 B | A2 G2 F2 ED | %11
w: |||Di- gna- re|me lau- da-|* * * * * re|te,||di-|gna- re me lau-|da- * * * *|
 E2 E2 D3 E | F2 G2 D4 | z4 z2 G2- | G2 F2 B4- | B2 A2 F4 | G4 A4 | z2 G2 F2 D2 | F4 E4 | %19
w: * re te _|_ _ _|Vir-|* go sa-|* cra- *|* ta,|da mi- hi|vir- tu-|
 D4 z2 d2 | c2 A2 c4 | B2 G2 B4 | A8 | A4 G2 B2 | A2 F4 E2 | F2 G4 F2 | G4 z4 | z4 z2 d2- | %28
w: tem, da|mi- hi vir-|tu- tem con-|tra|hos- tes tu-|os, con- tra|hos- tes tu-|os,|con-|
 d2 c2 e2 d2- | d2 d3 efd | ed d4"^#" c2 | d4 z2 G2- | G2 F2 A2 GA | BGAB cBAG | A4 G2 G2 | %35
w: * tra hos- tes|_ tu- * * *||os, con-|* tra hos- tes _|_ _ _ _ _ _ _ _|tu- os, da|
"^-natural" F2 D2 F4 | E4 D4 | z2 d2 c2 A2 | c4 B2 G2 | B4 A4- | A4 A4 | G2 B2 A2 F2- | %42
w: mi- hi vir-|tu- tem,|da mi- hi|vir- tu- tem|con- tra|_ hos-|tes tu- * *|
 F2 E2 F2 G2- | G2 F2 G4 | z8 | z2 d4 c2 | e2 d4 d2- | defd ed d2- | d2"^#" c2 d4 | z2 G4 F2 | %50
w: |* * os||con- tra|hos- tes tu-||* * os,|tra hos-|
 A2 GA BGAB | cBAG A2 A2 | G8- | G8- | G8 |] %55
w: tes _ _ _ _ _ _|_ _ _ _ _ tu-|os.|_||
V:3
 D4 D2 D2 | G4 D2 F2- | F2 ED E2 F2 | D8 | z4 d4 | d2 d2 c4 | B4 A4- | A2 F4 ED | E2 F3 EDC | %9
w: Di- gna- re|me lau- da-|* * * * re|te,|di-|gna- re me|lau- da-|* re _ _|_ _ _ _ _|
 D4 E4- | E4 A4 | z2 A4 F2 | B8 | A2 c3 BAG | A4 G4 | z4 d4 | B2 c2 d4 | d2 B2 A2 F2 | %18
w: |* te|O Ie-|su|Chri- * * * *|* ste,|O|Ie- su Chri-|ste, da mi- hi|
 A3 G/F/ G2 A2 | z2 G2 F2 D2 | F3 E/F/ G2 A2 | F2 E2 F2 G2 | E4 D4 | z8 | z2 A4 G2 | B4 A4 | %26
w: vir- * * tu- tem,|da mi- hi|vir- * * tu- tem,|da mi- hi vir-|tu- tem||con- tra|hos- tes,|
 z2 G4 F2 | A2 G4 F2 | G3 F GA B2- | BA G4 F2 | G4 E4 | D4 z4 | z2 D2 C2 _E2 | DEFG AG G2- | %34
w: con- tra|hos- tes tu-|os _ _ _ ,con-|* * tra hos|tes tu-|os,|con- tra hos-|tes _ _ _ _ _ _|
 G2"^#" F2 G2 B2 | A2 F2 A3 G/F/ | G2 A2 z2 G2 | F2 D2 F3 E/F/ | G2 A2 F2 E2 | F2 G2 E4 | D4 z4 | %41
w: _ tu- os, da|mi- h vir- * *|tu- tem, da|mi- hi vir _ _|tu- tem, da mi-|hi vir- tu-|tem|
 z4 z2 A2- | A2 G2 B4 | A4 z2 G2- | G2 F2 A2 G2- | G2 F2 G3 F | GA B3 A G2- | G2 F2 G4 | E4 D4 | %49
w: con-|* tra hos-|tes, con-|* tra hos- tes|_ tu- os _|_ , con- * tra|_ hos- tes|tu- os,|
 z4 z2 D2 | C2 _E2 DEFG | AG G4"^#" F2 | G"^-natural"F"^b"ED C2 D2 |"^b" E4 D4- | D8 |] %55
w: con-|tra hos- tes _ _ _|_ _ tu- *|os _ _ , hos- tes|tu- os.|_|
V:4
 z8 | z8 | z8 | G4 G2 G2 | d6 G2 | B4 c4 | G4 z2 d2 | d2 d2 c4 | c2 d3 cBA | B2 B2 A4- | A8- | %11
w: |||Di- gna re|me lau-|da- re|te, di-|gna- re me|lau- da- * * *|* re te|_|
 A4 z2 d2- | d2 G2 GABc | d2 c2 e4 | d4 z4 | d6 B2 |"^b" e4 d4 | G4 d4 | z2 d2 c2 A2 | B2 G2 d4 | %20
w: * O|_ Ie- su _ _ _|_ Chri- *|ste,|O Ie-|su Chri-|ste _|da mi- hi|vir- tu- tem,|
 z2 d2 c2 A2 | B2 c2 B2 G2 | A4 z2 d2- | d2 c2 e2 d2- | dc d2 A2 c2 | B2 G2 d4 | z4 d4 | %27
w: da mi- hi|vir- tu- * *|tem con-|* tra hos- tes|_ _ tu- os, hos-|tes tu- os|con-|
 c2 e2 d3 c | B2 c4 BA | GABc d4 | G4 A4 | z2 d2 c2 e2 | d4 z4 | z2 d2 c2 e2 | d4 G4 | d4 z2 d2 | %36
w: tra hos- tes _|tu- * * *||* os,|con- tra hos-|tes,|con- tra hos-|tes tu-|os, da|
 c2 A2 B2 G2 | d4 z2 d2 | c2 A2 B2 c2 | A2 G2 A4 | z2 d4 c2 | e2 d3 c d2 | A2 c2 B2 G2 | d4 z4 | %44
w: mi- hi vir- tu-|tem, da|mi- hi vir- tu-|* * tem|con- tra|hos- tes _ tu-||os,|
 d4 c2 e2 | d3 c B2 c2- | c2 BA GABc | d4 G4 | %48
w: con- tra hos-|tes _ tu- *|||
 A4 z2 d2"^Notes: Original keys: Sol, Sol, Ut 1st, Ut 3rd\n            Note values have been halved\n            Editorial accidentals above the staff" | %49
w: os, con-|
 c2 e2 d4 | z4 z2 d2 | c2"^b" e2 d3 c | B2 c4 B2 | c4 G4- | G8 |] %55
w: tra hos- tes,|con-|tra hos- tes _|tu- * *|||

